lib/flags/bq-sa-saba.svg

<svg xmlns="http://www.w3.org/2000/svg" fill="none" aria-hidden="true" viewBox="0 0 42 30"><g id="Country=BQ-SA - Saba, Size=sm (36x24)" filter="url(#filter0_dd_91_29395)"><g clip-path="url(#clip0_91_29395)"><g id="flag"><mask id="mask0_91_29395" width="36" height="24" x="3" y="2" maskUnits="userSpaceOnUse" style="mask-type:alpha"><rect id="mask" width="36" height="24" x="3" y="2" fill="white"/></mask><g mask="url(#mask0_91_29395)"><g id="contents"><path id="bg" fill="white" fill-rule="evenodd" d="M3 2H39V26H3V2Z" clip-rule="evenodd"/><path id="Path 448" fill="#F00000" fill-rule="evenodd" d="M3 13.664V2H21L3 13.664Z" clip-rule="evenodd"/><path id="Path 448_2" fill="#F00000" fill-rule="evenodd" d="M39 13.664V2H21L39 13.664Z" clip-rule="evenodd"/><path id="Path 448_3" fill="#00268D" fill-rule="evenodd" d="M3 13.664V26H21L3 13.664Z" clip-rule="evenodd"/><path id="Path 448_4" fill="#00268D" fill-rule="evenodd" d="M39 13.6639V26.3359L21 25.9999L39 13.6639Z" clip-rule="evenodd"/><path id="Star" fill="#FEDA00" fill-rule="evenodd" d="M20.6782 16.2563L16.7211 18.7633L18.1732 14.622L14.25 12.087H19.1376L20.6782 8L22.3112 12.087H27.0657L23.1767 14.622L24.655 18.7633L20.6782 16.2563Z" clip-rule="evenodd"/></g></g></g></g></g><defs><filter id="filter0_dd_91_29395" width="42" height="30" x="0" y="0" color-interpolation-filters="sRGB" filterUnits="userSpaceOnUse"><feFlood flood-opacity="0" result="BackgroundImageFix"/><feColorMatrix in="SourceAlpha" result="hardAlpha" values="0 0 0 0 0 0 0 0 0 0 0 0 0 0 0 0 0 0 127 0"/><feOffset dy="1"/><feGaussianBlur stdDeviation="1"/><feColorMatrix values="0 0 0 0 0.0627451 0 0 0 0 0.0941176 0 0 0 0 0.156863 0 0 0 0.06 0"/><feBlend in2="BackgroundImageFix" result="effect1_dropShadow_91_29395"/><feColorMatrix in="SourceAlpha" result="hardAlpha" values="0 0 0 0 0 0 0 0 0 0 0 0 0 0 0 0 0 0 127 0"/><feOffset dy="1"/><feGaussianBlur stdDeviation="1.5"/><feColorMatrix values="0 0 0 0 0.0627451 0 0 0 0 0.0941176 0 0 0 0 0.156863 0 0 0 0.1 0"/><feBlend in2="effect1_dropShadow_91_29395" result="effect2_dropShadow_91_29395"/><feBlend in="SourceGraphic" in2="effect2_dropShadow_91_29395" result="shape"/></filter><clipPath id="clip0_91_29395"><rect width="36" height="24" x="3" y="2" fill="white" rx="2"/></clipPath></defs></svg>

<svg xmlns="http://www.w3.org/2000/svg" fill="none" aria-hidden="true" viewBox="0 0 42 30"><g filter="url(#a)"><g clip-path="url(#b)"><mask id="c" width="36" height="24" x="3" y="2" maskUnits="userSpaceOnUse" style="mask-type:alpha"><path fill="#fff" d="M3 2h36v24H3z"/></mask><g fill-rule="evenodd" clip-rule="evenodd" mask="url(#c)"><path fill="#fff" d="M3 2h36v24H3V2Z"/><path fill="#F00000" d="M3 13.664V2h18L3 13.664Zm36 0V2H21l18 11.664Z"/><path fill="#00268D" d="M3 13.664V26h18L3 13.664Zm36 0v12.672L21 26l18-12.336Z"/><path fill="#FEDA00" d="m20.678 16.256-3.957 2.507 1.452-4.141-3.923-2.535h4.888L20.678 8l1.633 4.087h4.755l-3.89 2.535 1.479 4.141-3.977-2.507Z"/></g></g></g><defs><clipPath id="b"><rect width="36" height="24" x="3" y="2" fill="#fff" rx="2"/></clipPath><filter id="a" width="42" height="30" x="0" y="0" color-interpolation-filters="sRGB" filterUnits="userSpaceOnUse"><feFlood flood-opacity="0" result="BackgroundImageFix"/><feColorMatrix in="SourceAlpha" result="hardAlpha" values="0 0 0 0 0 0 0 0 0 0 0 0 0 0 0 0 0 0 127 0"/><feOffset dy="1"/><feGaussianBlur stdDeviation="1"/><feColorMatrix values="0 0 0 0 0.0627451 0 0 0 0 0.0941176 0 0 0 0 0.156863 0 0 0 0.06 0"/><feBlend in2="BackgroundImageFix" result="effect1_dropShadow_91_29395"/><feColorMatrix in="SourceAlpha" result="hardAlpha" values="0 0 0 0 0 0 0 0 0 0 0 0 0 0 0 0 0 0 127 0"/><feOffset dy="1"/><feGaussianBlur stdDeviation="1.5"/><feColorMatrix values="0 0 0 0 0.0627451 0 0 0 0 0.0941176 0 0 0 0 0.156863 0 0 0 0.1 0"/><feBlend in2="effect1_dropShadow_91_29395" result="effect2_dropShadow_91_29395"/><feBlend in="SourceGraphic" in2="effect2_dropShadow_91_29395" result="shape"/></filter></defs></svg>
